!!!OTL: 23. Bayerische Volkshymne.
!!!COM: Franz Lachner
!!!ARE: Europa, Mitteleuropa, Deutschland, Bayern
!!!SCT: B0023
!!!TXL: @@DE
!!!YEM: Copyright 1995, estate of Helmut Schaffrath.
**kern	**text
*ICvox	*
*Ivox	*
*M4/4	*
*met(c)	*
*clefG2	*
*k[b-e-]	*
*B-:	*
=1	=1
!LO:TX:a:t=Wֳürdig	!
{2f	Bay-
4d	-ern,
4b-	o
=2	=2
4.a	Hei-
8g	-math-
2f}	-land,
=3	=3
{2f	du
4d	unſ-
4g	-rer
=4	=4
4.f	Lie-
8e-	-ben
2d}	Land,
=5	=5
{2d	voll
4g	aus
4en	des
=6	=6
4.f	Her-
8g	-ʒens
2a}	Drang
=7	=7
{(4.cc	ſchal-
8b-)	.
4a	-le
4g	dein
=8	=8
2.f	Sang!
4r}	.
=9	=9
{2f	Kräf-
4c	-tig
4e-	und
=10	=10
4d	wahr
4g	und
2f}	echt
=11	=11
{2b-	blü-
4a	-he
4g	dein
=12	=12
4.cc	Kern-
8a	-ge-
2f}	-ſchlecht,
=13	=13
{2f	pran-
4d	-gend
4b-	im
=14	=14
4.b-	Eh-
8a	-ren-
2g}	-preis
=15	=15
{4f	blü-
4g	.
4a	-he
8b-L	dein
8ccJ	.
=16	=16
2.b-	Reis!
4r}	.
=17	=17
{2f	Kräf-
4c	-tig
4e-	und
=18	=18
4d	wahr
4g	und
2f}	echt
=19	=19
{2b-	blü-
4a	-he
4g	dein
=20	=20
4.cc	Kern-
8a	-ge-
2f}	-ſchlecht,
=21	=21
{2f	pran-
4d	-gend
4b-	im
=22	=22
4.b-	Eh-
8a	-ren-
2g}	-preis
=23	=23
{4f	blü-
4g	.
4a	-he
8b-L	dein
8ccJ	.
=24	=24
2.b-	Reis!
4r}	.
==	==
!!!AGN: politisch, national, Vaterlands - Lied
!!!GTL: Vaterlandslieder und Heimathgrüße
!!!ONB: ESAC (Essen Associative Code) Database: BOEHME
!!!AMT: simple quadruple
!!!AIN: vox
!!!EED: Helmut Schaffrath
!!!EEV: 1.0
!!@@COMMENT: "Gedicht von Fr. Beck. Mit Musk wohl kurz nach dem Regierungantritte Maximilians II 21. Maerz 1848 entstanden."
!!@@END:
!!Text: Fr. Beck
!!!URL-scan: https://archive.org/details/BoehmeVtLieder1895/page/n43/mode/2up
!!!ENC: Anna Maria Matuszewska
!!!EEV: 2024/13/06
*-	*-
